**kern	**silbe	**harmony	**phrase	**leadinstrument	**rhyme	**timestamp	**harte
*ICvox	*	*M4/4	*	*	*	*	*M4/4
*VRlead	*	*	*	*	*	*	*
*Hstimme	*	*	*	*	*	*	*
*d:	*	*d:	*d:	*d:	*	*d:	*d:
*M4/4	*	*	*	*	*	*	*
*clefGv2	*	*	*	*	*	*	*
r;	.	1r;	.	r	.	0	N.C.
=1	=1	=1	=1	=1	=1	=1	=1
*>Letter>A	*>Letter>A	*>Letter>A	*>Letter>A	*>Letter>A	*>Letter>A	*>Letter>A	*>Letter>A
*>Label>Intro	*>Label>Intro	*>Label>Intro	*>Label>Intro	*>Label>Intro	*>Label>Intro	*>Label>Intro	*>Label>Intro
1r	.	1Dm	newline	guitar	.	5.685	D:5
=2	=2	=2	=2	=2	=2	=2	=2
1r	.	1Dm	.	guitar	.	7.377	D:5
=3	=3	=3	=3	=3	=3	=3	=3
1r	.	1Dm	.	guitar	.	9.07	D:min
=4	=4	=4	=4	=4	=4	=4	=4
1r	.	1Dm	.	guitar	.	10.763	D:min
=5	=5	=5	=5	=5	=5	=5	=5
*>Letter>B	*>Letter>B	*>Letter>B	*>Letter>B	*>Letter>B	*>Letter>B	*>Letter>B	*>Letter>B
*>Label>Verse	*>Label>Verse	*>Label>Verse	*>Label>Verse	*>Label>Verse	*>Label>Verse	*>Label>Verse	*>Label>Verse
4r	.	1Dm	newline	voice	.	12.456	D:min
4D	Last	.	.	.	.	.	.
4F	night	.	.	.	.	.	.
4G	your	.	.	.	.	.	.
=6	=6	=6	=6	=6	=6	=6	=6
8A	sha-	1Dm	.	voice	.	14.143	D:min
[8A	-dow	.	.	.	.	.	.
8A]	_	.	.	.	.	.	.
[8G	fell	.	.	.	.	.	.
4G]	_	.	.	.	.	.	.
8F	u-	.	.	.	.	.	.
[8G	-pon	.	.	.	.	.	.
=7	=7	=7	=7	=7	=7	=7	=7
4G]	_	1CM	.	voice	.	15.831	C:maj
4E	my	.	.	.	.	.	.
8E	lone-	.	.	.	.	.	.
4D	-ly	.	.	.	.	.	.
[8E	room	.	.	.	A	.	.
=8	=8	=8	=8	=8	=8	=8	=8
8.E]	_	1CM	.	voice	.	17.518	C:maj
16r	.	.	.	.	.	.	.
4r	.	.	.	.	.	.	.
2r	.	.	.	.	.	.	.
=9	=9	=9	=9	=9	=9	=9	=9
4r	.	1Dm	newline	voice	.	19.206	D:min
4D	I	.	.	.	.	.	.
4F	touched	.	.	.	.	.	.
8G	your	.	.	.	.	.	.
8G	gol	.	.	.	.	.	.
=10	=10	=10	=10	=10	=10	=10	=10
8A	_	1Dm	.	voice	.	20.904	D:min
[8A	den	.	.	.	.	.	.
8A]	_	.	.	.	.	.	.
[8G	hair	.	.	.	.	.	.
4G]	_	.	.	.	.	.	.
4F	and	.	.	.	.	.	.
=11	=11	=11	=11	=11	=11	=11	=11
4G	taste-	1CM	.	voice	.	22.602	C:maj
4E	-d	.	.	.	.	.	.
8E	your	.	.	.	.	.	.
[8D	per	.	.	.	.	.	.
8D]	_	.	.	.	.	.	.
[8E	fume	.	.	.	A	.	.
=12	=12	=12	=12	=12	=12	=12	=12
8.E]	_	1CM	.	voice	.	24.3	C:maj
16r	.	.	.	.	.	.	.
4r	.	.	.	.	.	.	.
2r	.	.	.	.	.	.	.
=13	=13	=13	=13	=13	=13	=13	=13
4r	.	1Gm	newline	voice	.	25.999	G:min
8B-	Your	.	.	.	.	.	.
[8B-	eyes	.	.	.	.	.	.
4B-]	_	.	.	.	.	.	.
4B-	were	.	.	.	.	.	.
=14	=14	=14	=14	=14	=14	=14	=14
4B-	filled	1Gm	.	voice	.	27.704	G:min
8B-	with	.	.	.	.	.	.
[8c	love	.	.	.	.	.	.
4c]	_	.	.	.	.	.	.
8B-	the	.	.	.	.	.	.
[8A	way	.	.	.	.	.	.
=15	=15	=15	=15	=15	=15	=15	=15
8A]	_	1Dm	.	voice	.	29.409	D:min
[8A	they	.	.	.	.	.	.
4A]	_	.	.	.	.	.	.
4F	used	.	.	.	.	.	.
8G	to	.	.	.	.	.	.
[8A	be	.	.	.	B	.	.
=16	=16	=16	=16	=16	=16	=16	=16
4A]	_	1Dm	.	voice	.	31.114	D:min
4r	.	.	.	.	.	.	.
2r	.	.	.	.	.	.	.
=17	=17	=17	=17	=17	=17	=17	=17
4r	.	1Gm	newline	voice	.	32.819	G:min
4B-	Your	.	.	.	.	.	.
8B-	gen-	.	.	.	.	.	.
[8B-	-tle	.	.	.	.	.	.
8B-]	_	.	.	.	.	.	.
[8B-	hand	.	.	.	.	.	.
=18	=18	=18	=18	=18	=18	=18	=18
4B-]	_	1Gm	.	voice	.	34.499	G:min
4B-	reached	.	.	.	.	.	.
4c	out	.	.	.	.	.	.
8B-	to	.	.	.	.	.	.
[8B-	com	.	.	.	.	.	.
=19	=19	=19	=19	=19	=19	=19	=19
8B-]	_	1Dm	.	voice	.	36.179	D:min
[8A	fort	.	.	.	.	.	.
8A]	_	.	.	.	.	.	.
[8A	me	.	.	.	B	.	.
2A]	_	.	.	.	.	.	.
=20	=20	=20	=20	=20	=20	=20	=20
2B	_	1GM	.	voice	.	37.858	G:maj
2r	.	.	.	.	.	.	.
=21	=21	=21	=21	=21	=21	=21	=21
1r	.	1GM	newline	guitar	.	39.538	G:maj
=22	=22	=22	=22	=22	=22	=22	=22
2r	.	1GM	.	guitar	.	41.352	G:maj
8d	Then	.	.	.	.	.	.
8d	came	.	.	.	.	.	.
8d	the	.	.	.	.	.	.
[8d	dawn	.	.	.	C	.	.
=23	=23	=23	=23	=23	=23	=23	=23
*>Letter>C	*>Letter>C	*>Letter>C	*>Letter>C	*>Letter>C	*>Letter>C	*>Letter>C	*>Letter>C
*>Label>Prechorus	*>Label>Prechorus	*>Label>Prechorus	*>Label>Prechorus	*>Label>Prechorus	*>Label>Prechorus	*>Label>Prechorus	*>Label>Prechorus
8d]	_	1Dm	newline	voice	.	43.166	D:min
8r	.	.	.	.	.	.	.
4r	.	.	.	.	.	.	.
2r	.	.	.	.	.	.	.
=24	=24	=24	=24	=24	=24	=24	=24
2r	.	1Dm	.	voice	.	44.816	D:min
8d	and	.	.	.	.	.	.
8d	you	.	.	.	.	.	.
8d	were	.	.	.	.	.	.
[8d-	gone	.	.	.	C	.	.
=25	=25	=25	=25	=25	=25	=25	=25
8d-]	_	1D-m	.	voice	.	46.467	D-:min
8r	.	.	.	.	.	.	.
4r	.	.	.	.	.	.	.
2r	.	.	.	.	.	.	.
=26	=26	=26	=26	=26	=26	=26	=26
2r	.	1D-m	.	voice	.	48.117	D-:min
8d-	you	.	.	.	.	.	.
4.d-	were	.	.	.	.	.	.
=27	=27	=27	=27	=27	=27	=27	=27
4.B	gone	4.GM	newline	voice	C	49.767	G:maj
4.A	gone	4.FM	.	voice	C	50.646	F:maj
4G	gone	4E-M	.	voice	C	51.525	E-:maj
=28	=28	=28	=28	=28	=28	=28	=28
1r	.	1E-M	.	voice	.	52.404	E-:maj
=29	=29	=29	=29	=29	=29	=29	=29
1r	.	1N	.	voice	.	53.723	N.C.
=30	=30	=30	=30	=30	=30	=30	=30
*>Letter>D	*>Letter>D	*>Letter>D	*>Letter>D	*>Letter>D	*>Letter>D	*>Letter>D	*>Letter>D
*>Label>Chorus	*>Label>Chorus	*>Label>Chorus	*>Label>Chorus	*>Label>Chorus	*>Label>Chorus	*>Label>Chorus	*>Label>Chorus
8r	.	1Dm	newline	voice	.	55.481	D:min
[8d	I	.	.	.	.	.	.
8d]	_	.	.	.	.	.	.
8d	had	.	.	.	.	.	.
8d	too	.	.	.	.	.	.
8d	much	.	.	.	.	.	.
8d	to	.	.	.	.	.	.
[8f	dream	.	.	.	.	.	.
=31	=31	=31	=31	=31	=31	=31	=31
8f]	_	1GM	.	voice	.	57.13	G:maj
[8d	last	.	.	.	.	.	.
8d]	_	.	.	.	.	.	.
[8d	night	.	.	.	D	.	.
4d]	_	.	.	.	.	.	.
4r	.	.	.	.	.	.	.
=32	=32	=32	=32	=32	=32	=32	=32
2r	.	1Dm	.	voice	.	58.779	D:min
8A	too	.	.	.	.	.	.
8A	much	.	.	.	.	.	.
8A	to	.	.	.	.	.	.
[8B	dream	.	.	.	.	.	.
=33	=33	=33	=33	=33	=33	=33	=33
4B]	_	1GM	.	voice	.	60.428	G:maj
4r	.	.	.	.	.	.	.
2r	.	.	.	.	.	.	.
=34	=34	=34	=34	=34	=34	=34	=34
8r	.	1Dm	newline	voice	.	62.078	D:min
[8d	I'm	.	.	.	.	.	.
8d]	_	.	.	.	.	.	.
8d	not	.	.	.	.	.	.
8d	rea-	.	.	.	.	.	.
8d	-dy	.	.	.	.	.	.
8d	to	.	.	.	.	.	.
[8f	face	.	.	.	.	.	.
=35	=35	=35	=35	=35	=35	=35	=35
8f]	_	1GM	.	voice	.	63.727	G:maj
8d	the	.	.	.	.	.	.
4d	light	.	.	.	D	.	.
2r	.	.	.	.	.	.	.
=36	=36	=36	=36	=36	=36	=36	=36
8r	.	1Dm	.	voice	.	65.376	D:min
[8A	I	.	.	.	.	.	.
8A]	_	.	.	.	.	.	.
8A	had	.	.	.	.	.	.
8A	too	.	.	.	.	.	.
8G	much	.	.	.	.	.	.
8F#	to	.	.	.	.	.	.
[8A	dream	.	.	.	.	.	.
=37	=37	=37	=37	=37	=37	=37	=37
8A]	_	1AM	.	voice	.	67.026	A:maj
8r	.	.	.	.	.	.	.
4r	.	.	.	.	.	.	.
4r	.	.	.	.	.	.	.
4C#	last	.	.	.	D	.	.
=38	=38	=38	=38	=38	=38	=38	=38
*>Letter>E	*>Letter>E	*>Letter>E	*>Letter>E	*>Letter>E	*>Letter>E	*>Letter>E	*>Letter>E
*>Label>Trans	*>Label>Trans	*>Label>Trans	*>Label>Trans	*>Label>Trans	*>Label>Trans	*>Label>Trans	*>Label>Trans
4D	night	2Dm	newline	guitar	.	68.675	D:min
4r	.	.	.	.	.	.	.
2r	.	2CM	.	guitar	.	69.472	C:maj
=39	=39	=39	=39	=39	=39	=39	=39
2r	.	2B-M	.	guitar	.	70.269	B-:maj
4r	.	2CM	.	guitar	.	71.065	C:maj
4D	Last	.	.	.	.	.	.
=40	=40	=40	=40	=40	=40	=40	=40
4D	night.	2Dm	.	guitar	.	71.862	D:min
4r	.	.	.	.	.	.	.
2r	.	2CM	.	guitar	.	72.658	C:maj
=41	=41	=41	=41	=41	=41	=41	=41
1r	.	2B-M	.	guitar	.	73.455	B-:maj
.	.	2CM	.	guitar	.	74.252	C:maj
=42	=42	=42	=42	=42	=42	=42	=42
*>Letter>B	*>Letter>B	*>Letter>B	*>Letter>B	*>Letter>B	*>Letter>B	*>Letter>B	*>Letter>B
*>Label>Verse	*>Label>Verse	*>Label>Verse	*>Label>Verse	*>Label>Verse	*>Label>Verse	*>Label>Verse	*>Label>Verse
4.r	.	1Dm	newline	voice	.	75.048	D:min
8D	The	.	.	.	.	.	.
4F	room	.	.	.	.	.	.
8G	was	.	.	.	.	.	.
[8A	emp	.	.	.	.	.	.
=43	=43	=43	=43	=43	=43	=43	=43
8A]	_	1Dm	.	voice	.	76.691	D:min
8A	ty	.	.	.	.	.	.
4r	.	.	.	.	.	.	.
8r	.	.	.	.	.	.	.
8G	as	.	.	.	.	.	.
4F	I	.	.	.	.	.	.
=44	=44	=44	=44	=44	=44	=44	=44
8G	stagg-	1CM	.	voice	.	78.333	C:maj
4.E	-ered	.	.	.	.	.	.
8E	from	.	.	.	.	.	.
4D	my	.	.	.	.	.	.
[8E	bed	.	.	.	E	.	.
=45	=45	=45	=45	=45	=45	=45	=45
4E]	_	1CM	.	voice	.	79.976	C:maj
4r	.	.	.	.	.	.	.
2r	.	.	.	.	.	.	.
=46	=46	=46	=46	=46	=46	=46	=46
4.r	.	1Dm	newline	voice	.	81.618	D:min
8D	I	.	.	.	.	.	.
8F	could	.	.	.	.	.	.
4G	not	.	.	.	.	.	.
[8A	bear	.	.	.	.	.	.
=47	=47	=47	=47	=47	=47	=47	=47
8A]	_	1Dm	.	voice	.	83.263	D:min
8r	.	.	.	.	.	.	.
8r	.	.	.	.	.	.	.
8A	the	.	.	.	.	.	.
8G	i-	.	.	.	.	.	.
4.F	-mage	.	.	.	.	.	.
=48	=48	=48	=48	=48	=48	=48	=48
4G	rac-	1CM	.	voice	.	84.909	C:maj
4E	-ing	.	.	.	.	.	.
8E	through	.	.	.	.	.	.
4D	my	.	.	.	.	.	.
[8E	head	.	.	.	E	.	.
=49	=49	=49	=49	=49	=49	=49	=49
4E]	_	1CM	.	voice	.	86.554	C:maj
4r	.	.	.	.	.	.	.
2r	.	.	.	.	.	.	.
=50	=50	=50	=50	=50	=50	=50	=50
4r	.	1Gm	newline	voice	.	88.2	G:min
8B-	You	.	.	.	.	.	.
[8B-	were	.	.	.	.	.	.
4B-]	_	.	.	.	.	.	.
4B-	so	.	.	.	.	.	.
=51	=51	=51	=51	=51	=51	=51	=51
4B-	real	1Gm	.	voice	B	89.828	G:min
8r	.	.	.	.	.	.	.
8B-	that	.	.	.	.	.	.
8c	I	.	.	.	.	.	.
8B-	could	.	.	.	.	.	.
8r	.	.	.	.	.	.	.
[8B-	feel	.	.	.	B	.	.
=52	=52	=52	=52	=52	=52	=52	=52
8B-]	_	1Dm	.	voice	.	91.455	D:min
8A	your	.	.	.	.	.	.
4r	.	.	.	.	.	.	.
8r	.	.	.	.	.	.	.
4F	ea-	.	.	.	.	.	.
8G	-ger-	.	.	.	.	.	.
=53	=53	=53	=53	=53	=53	=53	=53
4.A	-ness	1Dm	.	voice	F	93.083	D:min
8r	.	.	.	.	.	.	.
2r	.	.	.	.	.	.	.
=54	=54	=54	=54	=54	=54	=54	=54
4r	.	1Gm	newline	voice	.	94.71	G:min
4B-	And	.	.	.	.	.	.
4B-	when	.	.	.	.	.	.
8B-	you	.	.	.	.	.	.
[8B-	raised	.	.	.	.	.	.
=55	=55	=55	=55	=55	=55	=55	=55
4B-]	_	1Gm	.	voice	.	96.341	G:min
8B-	your	.	.	.	.	.	.
[8c	lips	.	.	.	.	.	.
8c]	_	.	.	.	.	.	.
8r	.	.	.	.	.	.	.
8r	.	.	.	.	.	.	.
8B-	for	.	.	.	.	.	.
=56	=56	=56	=56	=56	=56	=56	=56
8B-	me	1Dm	.	voice	.	97.972	D:min
4A	to	.	.	.	.	.	.
[8A	kiss	.	.	.	F	.	.
2A]	_	.	.	.	.	.	.
=57	=57	=57	=57	=57	=57	=57	=57
4B	_	1GM	.	voice	.	99.602	G:maj
2r	.	.	.	.	.	.	.
4r	.	.	.	.	.	.	.
=58	=58	=58	=58	=58	=58	=58	=58
2r	.	1GM	newline	guitar	.	101.233	G:maj
8r	.	.	.	.	.	.	.
4d	came	.	.	.	.	.	.
8d	the	.	.	.	.	.	.
=59	=59	=59	=59	=59	=59	=59	=59
*>Letter>C	*>Letter>C	*>Letter>C	*>Letter>C	*>Letter>C	*>Letter>C	*>Letter>C	*>Letter>C
*>Label>Prechorus	*>Label>Prechorus	*>Label>Prechorus	*>Label>Prechorus	*>Label>Prechorus	*>Label>Prechorus	*>Label>Prechorus	*>Label>Prechorus
4d	dawn	1Dm	newline	voice	C	102.934	D:min
4r	.	.	.	.	.	.	.
2r	.	.	.	.	.	.	.
=60	=60	=60	=60	=60	=60	=60	=60
2r	.	1Dm	.	voice	.	104.573	D:min
8d	and	.	.	.	.	.	.
8d	you	.	.	.	.	.	.
8d	were	.	.	.	.	.	.
[8d-	gone	.	.	.	C	.	.
=61	=61	=61	=61	=61	=61	=61	=61
8d-]	_	1D-m	.	voice	.	106.213	D-:min
8r	.	.	.	.	.	.	.
4r	.	.	.	.	.	.	.
2r	.	.	.	.	.	.	.
=62	=62	=62	=62	=62	=62	=62	=62
2r	.	1D-m	.	voice	.	107.853	D-:min
8d-	you	.	.	.	.	.	.
4.d-	were	.	.	.	.	.	.
=63	=63	=63	=63	=63	=63	=63	=63
4.B	gone	4.GM	newline	voice	C	109.492	G:maj
4.A	gone	4.FM	.	voice	C	110.349	F:maj
4G	gone	4E-M	.	voice	C	111.206	E-:maj
=64	=64	=64	=64	=64	=64	=64	=64
1r	.	1E-M	.	voice	.	112.063	E-:maj
=65	=65	=65	=65	=65	=65	=65	=65
1r	.	1N	.	voice	.	113.349	N.C.
=66	=66	=66	=66	=66	=66	=66	=66
*>Letter>D	*>Letter>D	*>Letter>D	*>Letter>D	*>Letter>D	*>Letter>D	*>Letter>D	*>Letter>D
*>Label>Chorus	*>Label>Chorus	*>Label>Chorus	*>Label>Chorus	*>Label>Chorus	*>Label>Chorus	*>Label>Chorus	*>Label>Chorus
8r	.	1Dm	newline	voice	.	115.063	D:min
[8d	I	.	.	.	.	.	.
8d]	_	.	.	.	.	.	.
8d	had	.	.	.	.	.	.
8d	too	.	.	.	.	.	.
8d	much	.	.	.	.	.	.
8d	to	.	.	.	.	.	.
[8f	dream	.	.	.	.	.	.
=67	=67	=67	=67	=67	=67	=67	=67
8f]	_	1GM	.	voice	.	116.697	G:maj
[8d	last	.	.	.	.	.	.
8d]	_	.	.	.	.	.	.
[8d	night	.	.	.	D	.	.
4d]	_	.	.	.	.	.	.
4r	.	.	.	.	.	.	.
=68	=68	=68	=68	=68	=68	=68	=68
2r	.	1Dm	.	voice	.	118.331	D:min
8A	too	.	.	.	.	.	.
8A	much	.	.	.	.	.	.
8A	to	.	.	.	.	.	.
[8B	dream	.	.	.	.	.	.
=69	=69	=69	=69	=69	=69	=69	=69
4B]	_	1GM	.	voice	.	119.965	G:maj
4r	.	.	.	.	.	.	.
2r	.	.	.	.	.	.	.
=70	=70	=70	=70	=70	=70	=70	=70
8r	.	1Dm	newline	voice	.	121.6	D:min
[8d	I'm	.	.	.	.	.	.
8d]	_	.	.	.	.	.	.
8d	not	.	.	.	.	.	.
8d	rea-	.	.	.	.	.	.
8d	-dy	.	.	.	.	.	.
8d	to	.	.	.	.	.	.
[8f	face	.	.	.	.	.	.
=71	=71	=71	=71	=71	=71	=71	=71
8f]	_	1GM	.	voice	.	123.217	G:maj
8d	the	.	.	.	.	.	.
4d	light	.	.	.	D	.	.
2r	.	.	.	.	.	.	.
=72	=72	=72	=72	=72	=72	=72	=72
8r	.	1Dm	.	voice	.	124.835	D:min
[8A	I	.	.	.	.	.	.
8A]	_	.	.	.	.	.	.
8A	had	.	.	.	.	.	.
8A	too	.	.	.	.	.	.
8G	much	.	.	.	.	.	.
8F#	to	.	.	.	.	.	.
[8A	dream	.	.	.	.	.	.
=73	=73	=73	=73	=73	=73	=73	=73
8A]	_	1AM	.	voice	.	126.453	A:maj
8r	.	.	.	.	.	.	.
4r	.	.	.	.	.	.	.
4r	.	.	.	.	.	.	.
4C#	last	.	.	.	.	.	.
=74	=74	=74	=74	=74	=74	=74	=74
*>Letter>E	*>Letter>E	*>Letter>E	*>Letter>E	*>Letter>E	*>Letter>E	*>Letter>E	*>Letter>E
*>Label>Trans	*>Label>Trans	*>Label>Trans	*>Label>Trans	*>Label>Trans	*>Label>Trans	*>Label>Trans	*>Label>Trans
4D	night	2Dm	newline	guitar	D	128.07	D:min
4r	.	.	.	.	.	.	.
2r	.	2CM	.	guitar	.	128.869	C:maj
=75	=75	=75	=75	=75	=75	=75	=75
2r	.	2B-M	.	guitar	.	129.668	B-:maj
4r	.	2CM	.	guitar	.	130.467	C:maj
4C#	Last	.	.	.	.	.	.
=76	=76	=76	=76	=76	=76	=76	=76
4D	night.	2Dm	.	guitar	D	131.266	D:min
4r	.	.	.	.	.	.	.
2r	.	2CM	.	guitar	.	132.065	C:maj
=77	=77	=77	=77	=77	=77	=77	=77
1r	.	2B-M	.	guitar	.	132.864	B-:maj
.	.	2CM	.	guitar	.	133.663	C:maj
=78	=78	=78	=78	=78	=78	=78	=78
*>Letter>D	*>Letter>D	*>Letter>D	*>Letter>D	*>Letter>D	*>Letter>D	*>Letter>D	*>Letter>D
*>Label>Chorus	*>Label>Chorus	*>Label>Chorus	*>Label>Chorus	*>Label>Chorus	*>Label>Chorus	*>Label>Chorus	*>Label>Chorus
8r	.	1Dm	newline	voice	.	134.462	D:min
[8d	I	.	.	.	.	.	.
8d]	_	.	.	.	.	.	.
8d	had	.	.	.	.	.	.
8d	too	.	.	.	.	.	.
8d	much	.	.	.	.	.	.
8d	to	.	.	.	.	.	.
[8f	dream	.	.	.	.	.	.
=79	=79	=79	=79	=79	=79	=79	=79
8f]	_	1GM	.	voice	.	136.094	G:maj
[8d	last	.	.	.	.	.	.
8d]	_	.	.	.	.	.	.
[8d	night	.	.	.	D	.	.
4d]	_	.	.	.	.	.	.
4r	.	.	.	.	.	.	.
=80	=80	=80	=80	=80	=80	=80	=80
2r	.	1Dm	.	voice	.	137.726	D:min
8A	too	.	.	.	.	.	.
8A	much	.	.	.	.	.	.
8A	to	.	.	.	.	.	.
[8B	dream	.	.	.	.	.	.
=81	=81	=81	=81	=81	=81	=81	=81
4B]	_	1GM	.	voice	.	139.358	G:maj
4r	.	.	.	.	.	.	.
2r	.	.	.	.	.	.	.
=82	=82	=82	=82	=82	=82	=82	=82
8r	.	1Dm	newline	voice	.	140.99	D:min
[8d	I'm	.	.	.	.	.	.
8d]	_	.	.	.	.	.	.
8d	not	.	.	.	.	.	.
8d	rea-	.	.	.	.	.	.
8d	-dy	.	.	.	.	.	.
8d	to	.	.	.	.	.	.
[8f	face	.	.	.	.	.	.
=83	=83	=83	=83	=83	=83	=83	=83
8f]	_	1GM	.	voice	.	142.618	G:maj
8d	the	.	.	.	.	.	.
4d	light	.	.	.	D	.	.
2r	.	.	.	.	.	.	.
=84	=84	=84	=84	=84	=84	=84	=84
8r	.	1Dm	.	voice	.	144.245	D:min
[8A	I	.	.	.	.	.	.
8A]	_	.	.	.	.	.	.
8A	had	.	.	.	.	.	.
8A	too	.	.	.	.	.	.
8G	much	.	.	.	.	.	.
8F#	to	.	.	.	.	.	.
[8A	dream	.	.	.	.	.	.
=85	=85	=85	=85	=85	=85	=85	=85
8A]	_	1AM	.	voice	.	145.873	A:maj
8r	.	.	.	.	.	.	.
4r	.	.	.	.	.	.	.
4r	.	.	.	.	.	.	.
4C#	last	.	.	.	.	.	.
=86	=86	=86	=86	=86	=86	=86	=86
*>Letter>E	*>Letter>E	*>Letter>E	*>Letter>E	*>Letter>E	*>Letter>E	*>Letter>E	*>Letter>E
*>Label>Outro	*>Label>Outro	*>Label>Outro	*>Label>Outro	*>Label>Outro	*>Label>Outro	*>Label>Outro	*>Label>Outro
4D	night	2Dm	newline	voice	D	147.501	D:min
4r	.	.	.	.	.	.	.
2r	.	2CM	.	voice	.	148.311	C:maj
=87	=87	=87	=87	=87	=87	=87	=87
2r	.	2B-M	.	voice	.	149.121	B-:maj
4r	.	2CM	.	voice	.	149.931	C:maj
4C#	Last	.	.	.	.	.	.
=88	=88	=88	=88	=88	=88	=88	=88
4D	night.	2Dm	.	voice	.	150.741	D:min
4r	.	.	.	.	.	.	.
2r	.	2CM	.	voice	.	151.551	C:maj
=89	=89	=89	=89	=89	=89	=89	=89
8r	.	2B-M	.	voice	.	152.361	B-:maj
4.d	Oh	.	.	.	.	.	.
8d	too	2CM	.	voice	.	153.171	C:maj
8d	much	.	.	.	.	.	.
8c	to	.	.	.	.	.	.
[8d	dream	.	.	.	.	.	.
=90	=90	=90	=90	=90	=90	=90	=90
4d]	_	2Dm	newline	voice	.	153.98	D:min
4r	.	.	.	.	.	.	.
2r	.	2CM	.	voice	.	154.77	C:maj
=91	=91	=91	=91	=91	=91	=91	=91
4r	.	2B-M	.	voice	.	155.559	B-:maj
4d	Oh	.	.	.	.	.	.
8d	too	2CM	.	voice	.	156.349	C:maj
8d	much	.	.	.	.	.	.
8c	to	.	.	.	.	.	.
[8d	dream	.	.	.	.	.	.
=92	=92	=92	=92	=92	=92	=92	=92
4d]	_	2Dm	.	voice	.	157.138	D:min
4r	.	.	.	.	.	.	.
2r	.	2CM	.	voice	.	157.928	C:maj
=93	=93	=93	=93	=93	=93	=93	=93
2r	.	2B-M	.	voice	.	158.717	B-:maj
8d	Too	2CM	.	voice	.	159.507	C:maj
8d	much	.	.	.	.	.	.
8d	to	.	.	.	.	.	.
[8f	dream	.	.	.	.	.	.
=94	=94	=94	=94	=94	=94	=94	=94
8f]	_	2Dm	newline	voice	.	160.296	D:min
4d	last	.	.	.	.	.	.
[8d	night	.	.	.	.	.	.
8d]	_	2CM	.	voice	.	161.098	C:maj
8r	.	.	.	.	.	.	.
4r	.	.	.	.	.	.	.
=95	=95	=95	=95	=95	=95	=95	=95
8r	.	2B-M	.	voice	.	161.901	B-:maj
4.d	Oh	.	.	.	.	.	.
8d	too	2CM	.	voice	.	162.703	C:maj
8d	much	.	.	.	.	.	.
8c	to	.	.	.	.	.	.
[8d	dream	.	.	.	.	.	.
=96	=96	=96	=96	=96	=96	=96	=96
4d]	_	2Dm	.	voice	.	163.505	D:min
4r	.	.	.	.	.	.	.
2r	.	2CM	.	voice	.	164.307	C:maj
=97	=97	=97	=97	=97	=97	=97	=97
4r	.	2B-M	.	voice	.	165.11	B-:maj
4d	Oh	.	.	.	.	.	.
8d	too	2CM	.	voice	.	165.912	C:maj
8d	much	.	.	.	.	.	.
8c	to	.	.	.	.	.	.
[8d	dream	.	.	.	.	.	.
=98	=98	=98	=98	=98	=98	=98	=98
*>Label>>Fadeout	*>Label>>Fadeout	*>Label>>Fadeout	*>Label>>Fadeout	*>Label>>Fadeout	*>Label>>Fadeout	*>Label>>Fadeout	*>Label>>Fadeout
4d]	_	2Dm	newline	voice	.	166.714	D:min
4r	.	.	.	.	.	.	.
2r	.	2CM	.	voice	.	167.501	C:maj
=99	=99	=99	=99	=99	=99	=99	=99
8r	.	2B-M	.	voice	.	168.289	B-:maj
4.d	Oh	.	.	.	.	.	.
8d	too	2CM	.	voice	.	169.076	C:maj
8d	much	.	.	.	.	.	.
8c	to	.	.	.	.	.	.
[8d	dream	.	.	.	.	.	.
=100	=100	=100	=100	=100	=100	=100	=100
4d]	_	2Dm	.	voice	.	169.864	D:min
4r	.	.	.	.	.	.	.
4.r	.	2CM	.	voice	.	170.651	C:maj
[8d	Oh	.	.	.	.	.	.
=101	=101	=101	=101	=101	=101	=101	=101
8d]	_	2B-M	.	voice	.	171.438	B-:maj
8d	I	.	.	.	.	.	.
4d	had	.	.	.	.	.	.
8d	too	2CM	.	voice	.	172.226	C:maj
8d	much	.	.	.	.	.	.
8c	to	.	.	.	.	.	.
[8d	dream	.	.	.	.	.	.
=102	=102	=102	=102	=102	=102	=102	=102
4d]	_	2Dm	newline	voice	.	173.013	D:min
4r	.	.	.	.	.	.	.
2r	.	2CM	.	voice	.	173.48	C:maj
=103	=103	=103	=103	=103	=103	=103	=103
4r	.	2B-M	.	voice	.	173.947	B-:maj
4d	Oh	.	.	.	.	.	.
8d	too	2CM	.	voice	.	174.415	C:maj
8d	much	.	.	.	.	.	.
8c	to	.	.	.	.	.	.
[8d	dream	.	.	.	.	.	.
=104	=104	=104	=104	=104	=104	=104	=104
4d]	_	2Dm	.	voice	.	174.882	D:min
4r	.	.	.	.	.	.	.
2r	.	2CM	.	voice	.	175.349	C:maj
=105	=105	=105	=105	=105	=105	=105	=105
1r	.	2B-M	.	voice	.	175.816	B-:maj
.	.	2CM	.	voice	.	176.283	C:maj
r;	.	1r;	.	r	.	176.75	N.C.
r;	.	1r;	.	r	.	179.984	N.C.
*-	*-	*-	*-	*-	*-	*-	*-
!!!BillboardChartDate: 1967/01/07
!!!BillboardPeak: 11
!!!BillboardWeeksOnChart: 14
!!!COC: The Electric Prunes
!!!ENC: Nathaniel Condit-Schultz
!!!EST: Awating manual error checking and editing.
!!!OTL: I Had Too Much To Dream (Last Night)
!!!RDF**chordsym: original McGill chord annotation + (implied pitch class set, with bass pitch in first position)
!!!RDF**harmony: **recip + pitch class of root + harmonic quality
!!!RDF**leadinstrument: original McGill primary instrumentation annotation
!!!RDF**phrase: newline = linebreak in original McGill transcription
!!!RDF**timestamp: McGill audio timestamp in seconds
!!!RDT: 2017/01/12/
!!!SampleActualRank: 47
!!!SampleID#: 0134
!!!SampleTargetRank: 49
